Sources/FrostedUI/Resources/Icons.xcassets/chevronLeftToLineInBox24.imageset/chevron-left-to-line-in-box-24.svg

<svg width="24" height="24" viewBox="0 0 24 24" fill="none" xmlns="http://www.w3.org/2000/svg" data-fui-icon="true">
  <path
    d="M15.75 2C19.2018 2 22 4.79822 22 8.25V15.75C22 19.2018 19.2018 22 15.75 22H8.25C4.79822 22 2 19.2018 2 15.75V8.25C2 4.79822 4.79822 2 8.25 2H15.75ZM8.25 3.5C5.62665 3.5 3.5 5.62665 3.5 8.25V15.75C3.5 18.3734 5.62665 20.5 8.25 20.5H15.75C18.3734 20.5 20.5 18.3734 20.5 15.75V8.25C20.5 5.62665 18.3734 3.5 15.75 3.5H8.25ZM8.75 7C9.16421 7 9.5 7.33579 9.5 7.75V16.25C9.49995 16.6642 9.16418 17 8.75 17C8.33582 17 8.00005 16.6642 8 16.25V7.75C8 7.33579 8.33579 7 8.75 7ZM15.7354 7.20508C16.0365 6.92067 16.5105 6.93421 16.7949 7.23535C17.0793 7.53649 17.0658 8.01051 16.7646 8.29492L12.8408 12L16.7646 15.7051C17.0657 15.9895 17.0793 16.4635 16.7949 16.7646C16.5105 17.0657 16.0365 17.0793 15.7354 16.7949L11.2354 12.5449C11.0853 12.4033 11 12.2063 11 12C11 11.7937 11.0854 11.5968 11.2354 11.4551L15.7354 7.20508Z"
    fill="currentColor"
  />
</svg>

<svg xmlns="http://www.w3.org/2000/svg" width="24" height="24" fill="none" data-fui-icon="true" viewBox="0 0 24 24"><path fill="currentColor" d="M15.75 2A6.25 6.25 0 0 1 22 8.25v7.5A6.25 6.25 0 0 1 15.75 22h-7.5A6.25 6.25 0 0 1 2 15.75v-7.5A6.25 6.25 0 0 1 8.25 2zm-7.5 1.5A4.75 4.75 0 0 0 3.5 8.25v7.5a4.75 4.75 0 0 0 4.75 4.75h7.5a4.75 4.75 0 0 0 4.75-4.75v-7.5a4.75 4.75 0 0 0-4.75-4.75zm.5 3.5a.75.75 0 0 1 .75.75v8.5a.75.75 0 0 1-1.5 0v-8.5A.75.75 0 0 1 8.75 7m6.985.205a.75.75 0 1 1 1.03 1.09L12.84 12l3.924 3.705a.75.75 0 1 1-1.03 1.09l-4.5-4.25a.75.75 0 0 1 0-1.09z"/></svg>
